svgs/thin/file-arrow-up.svg

<svg xmlns="http://www.w3.org/2000/svg" viewBox="0 0 384 512"><!--! Font Awesome Pro 6.3.0 by @fontawesome - https://fontawesome.com License - https://fontawesome.com/license (Commercial License) Copyright 2023 Fonticons, Inc. --><path d="M374.6 150.6l-141.3-141.3C227.4 3.371 219.2 0 210.7 0H64C28.65 0 0 28.65 0 64l.0065 384c0 35.34 28.65 64 64 64H320c35.35 0 64-28.66 64-64V173.3C384 164.8 380.6 156.6 374.6 150.6zM224 22.63L361.4 160H248C234.8 160 224 149.2 224 136V22.63zM368 448c0 26.47-21.53 48-48 48H64c-26.47 0-48-21.53-48-48V64c0-26.47 21.53-48 48-48h144v120c0 22.06 17.94 40 40 40h120V448zM186.9 226.3l-108 108C77.37 335.9 76.59 337.9 76.59 340s.7813 4.094 2.344 5.656c3.125 3.125 8.188 3.125 11.31 0l94.34-94.34V440c0 4.406 3.578 8 8 8s8-3.594 8-8V251.3l93.17 93.17c3.125 3.125 8.188 3.125 11.31 0s3.125-8.188 0-11.31l-106.8-106.8C195.1 223.2 190.1 223.2 186.9 226.3z"/></svg>

<svg xmlns="http://www.w3.org/2000/svg" viewBox="0 0 384 512"><!-- Font Awesome Pro 6.0.0-alpha2 by @fontawesome - https://fontawesome.com License - https://fontawesome.com/license (Commercial License) --><path d="M374.629 150.625L233.371 9.375C227.371 3.371 219.23 0 210.746 0H64C28.652 0 0 28.652 0 64V448C0 483.344 28.652 512 64 512H320C355.348 512 384 483.344 384 448V173.254C384 164.766 380.629 156.629 374.629 150.625ZM224 22.629L361.375 160H248C234.781 160 224 149.234 224 136V22.629ZM368 448C368 474.469 346.469 496 320 496H64C37.531 496 16 474.469 16 448V64C16 37.531 37.531 16 64 16H208V136C208 158.062 225.938 176 248 176H368V448ZM186.93 226.344L78.93 334.344C77.367 335.906 76.586 337.938 76.586 340S77.367 344.094 78.93 345.656C82.055 348.781 87.117 348.781 90.242 345.656L184.586 251.312V440C184.586 444.406 188.164 448 192.586 448S200.586 444.406 200.586 440V251.312L293.758 344.484C296.883 347.609 301.945 347.609 305.07 344.484S308.195 336.297 305.07 333.172L198.242 226.344C195.117 223.219 190.055 223.219 186.93 226.344Z"/></svg>
